packages/components/bolt-icons/src/svgs/product/product/platform/robo-auto.svg

<?xml version="1.0" encoding="UTF-8" standalone="no"?>
<svg width="32px" height="32px" viewBox="0 0 32 32" version="1.1" xmlns="http://www.w3.org/2000/svg" xmlns:xlink="http://www.w3.org/1999/xlink">
    <!-- Generator: Sketch 47.1 (45422) - http://www.bohemiancoding.com/sketch -->
    <title>Icon/product/Platform/Robo-auto</title>
    <desc>Created with Sketch.</desc>
    <defs></defs>
    <g id="Symbols" stroke="none" stroke-width="1" fill="none" fill-rule="evenodd">
        <g id="Icon/product/Platform/Robo-auto" fill="#1F2555">
            <path d="M20.031,15.0003 L22.031,15.0003 L22.031,13.0003 L20.031,13.0003 L20.031,15.0003 Z M20.031,11.0003 L18.031,11.0003 L18.031,13.0003 L18.031,15.0003 L18.031,17.0003 L20.031,17.0003 L22.031,17.0003 L24.031,17.0003 L24.031,15.0003 L24.031,13.0003 L24.031,11.0003 L22.031,11.0003 L20.031,11.0003 Z M9.969,15.0003 L11.969,15.0003 L11.969,13.0003 L9.969,13.0003 L9.969,15.0003 Z M13.969,17.0003 L13.969,15.0003 L13.969,13.0003 L13.969,11.0003 L11.969,11.0003 L9.969,11.0003 L7.969,11.0003 L7.969,13.0003 L7.969,15.0003 L7.969,17.0003 L9.969,17.0003 L11.969,17.0003 L13.969,17.0003 Z M10.969,23.0003 L21.032,23.0003 L21.032,21.0003 L10.969,21.0003 L10.969,23.0003 Z M28.063,23.0003 C28.063,23.8343 27.771,24.5423 27.188,25.1253 C26.604,25.7093 25.896,26.0003 25.063,26.0003 L7,26.0003 C6.166,26.0003 5.458,25.7093 4.875,25.1253 C4.291,24.5423 4,23.8343 4,23.0003 L4,9.0003 C4,8.1673 4.291,7.4593 4.875,6.8753 C5.458,6.2923 6.166,6.0003 7,6.0003 L25.063,6.0003 C25.896,6.0003 26.604,6.2923 27.188,6.8753 C27.771,7.4593 28.063,8.1673 28.063,9.0003 L28.063,23.0003 Z M12,30.1523 L20,30.1523 L20,28.1523 L12,28.1523 L12,30.1523 Z M31.719,10.7813 C31.531,10.5933 31.313,10.5003 31.063,10.5003 L30.063,10.5003 L30.063,9.0003 C30.063,7.6253 29.572,6.4483 28.594,5.4683 C27.614,4.4903 26.438,4.0003 25.063,4.0003 L17,4.0003 L17,2.0003 L18,2.0003 C18.25,2.0003 18.479,1.9063 18.688,1.7183 C18.896,1.5313 19,1.2923 19,1.0003 C19,0.7093 18.896,0.4683 18.688,0.2813 C18.479,0.0933 18.25,0.0003 18,0.0003 L13.938,0.0003 C13.688,0.0003 13.458,0.0933 13.25,0.2813 C13.041,0.4683 12.938,0.7093 12.938,1.0003 C12.938,1.2923 13.041,1.5313 13.25,1.7183 C13.458,1.9063 13.688,2.0003 13.938,2.0003 L14.938,2.0003 L14.938,4.0003 L7,4.0003 C5.625,4.0003 4.447,4.4903 3.469,5.4683 C2.489,6.4483 2,7.6253 2,9.0003 L2,10.0003 L1,10.0003 C0.333,10.0003 0,10.3343 0,11.0003 L0,19.0003 C0,19.6673 0.333,20.0003 1,20.0003 L2,20.0003 L2,23.0003 C2,24.3753 2.489,25.5523 3.469,26.5313 C4.447,27.5103 5.625,28.0003 7,28.0003 L10,28.0003 L10,32.1523 L22,32.1523 L22,28.0003 L25.063,28.0003 C26.438,28.0003 27.614,27.5103 28.594,26.5313 C29.572,25.5523 30.063,24.3753 30.063,23.0003 L30.063,20.0003 L31.063,20.0003 C31.313,20.0003 31.531,19.9063 31.719,19.7183 C31.906,19.5313 32,19.3123 32,19.0623 L32,11.4373 C32,11.1873 31.906,10.9683 31.719,10.7813 L31.719,10.7813 Z" id="Page-1"></path>
        </g>
    </g>
</svg>

<svg id="baea1334-e77b-447e-a7e3-acc0c198eb3a" data-name="Layer 1" xmlns="http://www.w3.org/2000/svg" viewBox="0 0 32.1 32.2"><title>robo-auto</title><path id="bf6bae7d-afc6-4b28-97a4-da54927c0cb9" data-name="Page-1" d="M20,15h2V13H20Zm0-4H18v6h6V11H20ZM10,15h2V13H10Zm4,2V11H8v6h6Zm-3,6H21V21H11Zm17.1,0a3.08,3.08,0,0,1-3,3H7a2.88,2.88,0,0,1-2.1-.9A2.88,2.88,0,0,1,4,23V9a2.88,2.88,0,0,1,.9-2.1A2.88,2.88,0,0,1,7,6H25.1a2.88,2.88,0,0,1,2.1.9A2.88,2.88,0,0,1,28.1,9ZM12,30.2h8v-2H12ZM31.7,10.8a.91.91,0,0,0-.7-.3H30V9a4.54,4.54,0,0,0-1.5-3.5A4.85,4.85,0,0,0,25,4H17V2h1a1.08,1.08,0,0,0,.7-.3A.91.91,0,0,0,19,1a.91.91,0,0,0-.3-.7A1.08,1.08,0,0,0,18,0H13.9a1.08,1.08,0,0,0-.7.3.91.91,0,0,0-.3.7.91.91,0,0,0,.3.7,1.33,1.33,0,0,0,.7.3h1V4H7A4.54,4.54,0,0,0,3.5,5.5,4.54,4.54,0,0,0,2,9v1H1c-.7,0-1,.3-1,1v8c0,.7.3,1,1,1H2v3a4.54,4.54,0,0,0,1.5,3.5A4.85,4.85,0,0,0,7,28h3v4.2H22V28h3.1a4.54,4.54,0,0,0,3.5-1.5A4.85,4.85,0,0,0,30.1,23V20h1a1.08,1.08,0,0,0,.7-.3.91.91,0,0,0,.3-.7V11.4a2.09,2.09,0,0,0-.4-.6Z" fill="#1f2555" fill-rule="evenodd"/></svg>
